X:8
T:Bucks Of Oranmore, The
S:The Session: https://thesession.org/tunes/2#setting2
S:https://JamBuddy.live 2025
C:Traditional
R:reel
K:D
M:4/4
L:1/8
Q:120
| A2FA A2dB| A2FA BEE2| A2FA A2Bd| egfd edBd|
| A2FA A2dB| A2FA BEE2| DEFG AFAB| defd edBd||
| ADFD A2dB| ADFD BEE2| ADFD A2Bd| egfd edBd|
| ADFD A2dB| ADFD BEE2| DEFG AFAB| defd efge||
| a2fd edef| a2fd ed B2| a2fd edef| gefd edB2|
| a2fd edef| a2fd edB2| faaf bfaf| defd edBd||
| f2df e2de| f2df edBd| f2df e2de| gefd edBd|
| f2df e2de| f2df edBd| faaf bfaf| defd edBd||
| Adfd edfd| Adfd edBd| Adfd edfd| gefd edBd|
| Adfd edfd| Adfd edB2| faaf bfaf| defd edBd||

